plugins/sociallogin/apple/media/images/apple-white.svg

<svg clip-rule="evenodd" fill-rule="evenodd" height="1em" stroke-linejoin="round" stroke-miterlimit="2" viewBox="0 0 27 32" xmlns="http://www.w3.org/2000/svg"><path d="m824.666 779.304c-15.123 34.937-33.023 67.096-53.763 96.663-28.271 40.308-51.419 68.208-69.258 83.702-27.653 25.431-57.282 38.455-89.009 39.196-22.777 0-50.246-6.481-82.22-19.629-32.079-13.086-61.56-19.567-88.516-19.567-28.271 0-58.591 6.481-91.022 19.567-32.48 13.148-58.646 19.999-78.652 20.678-30.425 1.296-60.751-12.098-91.022-40.245-19.32-16.852-43.486-45.74-72.436-86.665-31.06-43.702-56.597-94.379-76.602-152.155-21.426-62.406-32.166-122.836-32.166-181.341 0-67.016 14.481-124.817 43.486-173.254 22.796-38.906 53.122-69.596 91.078-92.126 37.955-22.531 78.967-34.012 123.132-34.746 24.166 0 55.856 7.475 95.238 22.166 39.27 14.74 64.485 22.215 75.541 22.215 8.265 0 36.276-8.74 83.763-26.166 44.906-16.16 82.806-22.851 113.854-20.215 84.133 6.79 147.341 39.955 189.377 99.707-75.245 45.591-112.466 109.447-111.725 191.364.679 63.807 23.827 116.904 69.319 159.063 20.617 19.568 43.641 34.691 69.257 45.431-5.555 16.111-11.419 31.542-17.654 46.357zm-192.957-759.298c0 50.011-18.271 96.707-54.689 139.928-43.95 51.381-97.109 81.071-154.755 76.386-.735-6-1.16-12.314-1.16-18.95 0-48.011 20.9-99.392 58.016-141.403 18.531-21.271 42.098-38.957 70.677-53.066 28.518-13.899 55.492-21.585 80.862-22.901.741 6.686 1.049 13.372 1.049 20.005z" fill="#fff" fill-rule="nonzero" transform="scale(.032)"/></svg>

<?xml version="1.0" encoding="UTF-8" standalone="no"?>
<!DOCTYPE svg PUBLIC "-//W3C//DTD SVG 1.1//EN" "http://www.w3.org/Graphics/SVG/1.1/DTD/svg11.dtd">
<svg  height="1em" viewBox="0 0 27 32" version="1.1" xmlns="http://www.w3.org/2000/svg" xmlns:xlink="http://www.w3.org/1999/xlink" xml:space="preserve" xmlns:serif="http://www.serif.com/" style="fill-rule:evenodd;clip-rule:evenodd;stroke-linejoin:round;stroke-miterlimit:2;">
    <g id="path4" transform="matrix(0.032,0,0,0.032,0,0)">
        <path d="M824.666,779.304C809.543,814.241 791.643,846.4 770.903,875.967C742.632,916.275 719.484,944.175 701.645,959.669C673.992,985.1 644.363,998.124 612.636,998.865C589.859,998.865 562.39,992.384 530.416,979.236C498.337,966.15 468.856,959.669 441.9,959.669C413.629,959.669 383.309,966.15 350.878,979.236C318.398,992.384 292.232,999.235 272.226,999.914C241.801,1001.21 211.475,987.816 181.204,959.669C161.884,942.817 137.718,913.929 108.768,873.004C77.708,829.302 52.171,778.625 32.166,720.849C10.74,658.443 0,598.013 0,539.508C0,472.492 14.481,414.691 43.486,366.254C66.282,327.348 96.608,296.658 134.564,274.128C172.519,251.597 213.531,240.116 257.696,239.382C281.862,239.382 313.552,246.857 352.934,261.548C392.204,276.288 417.419,283.763 428.475,283.763C436.74,283.763 464.751,275.023 512.238,257.597C557.144,241.437 595.044,234.746 626.092,237.382C710.225,244.172 773.433,277.337 815.469,337.089C740.224,382.68 703.003,446.536 703.744,528.453C704.423,592.26 727.571,645.357 773.063,687.516C793.68,707.084 816.704,722.207 842.32,732.947C836.765,749.058 830.901,764.489 824.666,779.304ZM631.709,20.006C631.709,70.017 613.438,116.713 577.02,159.934C533.07,211.315 479.911,241.005 422.265,236.32C421.53,230.32 421.105,224.006 421.105,217.37C421.105,169.359 442.005,117.978 479.121,75.967C497.652,54.696 521.219,37.01 549.798,22.901C578.316,9.002 605.29,1.316 630.66,0C631.401,6.686 631.709,13.372 631.709,20.005L631.709,20.006Z" style="fill:white;fill-rule:nonzero;"/>
    </g>
</svg>
